X:7
T:T204C- Chevy Chase (long, Scots, in 6 line verses)
S:A Second Set of [30 Scots Songs], Bremner, c 1757
Q:60
L:1/4
M:3/4
K:Gmixolydian
D|D3/4 E/4GG|A3/4 B/4DB|c/ B/A3/2 G/|{F/}E2G|\
D3/4 E/4 GG|A3/4 B/4 Dz/ B/|c/ B/ c3/2 d/2|e2e|\
d3/4 B/4 AG|c/ d/ ez/e/|d/ B/ A3/2 G/|E2G|\
D/ E/ AG|A/ B/ cz/e/|d/ B/ A3/2 G/|G2|]

